storage/app/icons/phosphoricons/duotone/radio-duotone.svg

<svg xmlns="http://www.w3.org/2000/svg" fill="currentColor" viewBox="0 0 256 256"><path d="M216 72H32v120a8 8 0 0 0 8 8h176a8 8 0 0 0 8-8V80a8 8 0 0 0-8-8m-56 96a32 32 0 1 1 32-32 32 32 0 0 1-32 32" opacity=".2"/><path d="M104 168a8 8 0 0 1-8 8H64a8 8 0 0 1 0-16h32a8 8 0 0 1 8 8m-8-40H64a8 8 0 0 0 0 16h32a8 8 0 0 0 0-16m0-32H64a8 8 0 0 0 0 16h32a8 8 0 0 0 0-16m136-16v112a16 16 0 0 1-16 16H40a16 16 0 0 1-16-16V72a8 8 0 0 1 5.7-7.66l160-48a8 8 0 0 1 4.6 15.33L86.51 64H216a16 16 0 0 1 16 16m-16 112V80H40v112zm-16-56a40 40 0 1 1-40-40 40 40 0 0 1 40 40m-16 0a24 24 0 1 0-24 24 24 24 0 0 0 24-24"/></svg>

<svg xmlns="http://www.w3.org/2000/svg" viewBox="0 0 256 256" fill="currentColor"><path d="M216,72H32V192a8,8,0,0,0,8,8H216a8,8,0,0,0,8-8V80A8,8,0,0,0,216,72Zm-56,96a32,32,0,1,1,32-32A32,32,0,0,1,160,168Z" opacity="0.2"/><path d="M104,168a8,8,0,0,1-8,8H64a8,8,0,0,1,0-16H96A8,8,0,0,1,104,168Zm-8-40H64a8,8,0,0,0,0,16H96a8,8,0,0,0,0-16Zm0-32H64a8,8,0,0,0,0,16H96a8,8,0,0,0,0-16ZM232,80V192a16,16,0,0,1-16,16H40a16,16,0,0,1-16-16V72a8,8,0,0,1,5.7-7.66l160-48a8,8,0,0,1,4.6,15.33L86.51,64H216A16,16,0,0,1,232,80ZM216,192V80H40V192H216Zm-16-56a40,40,0,1,1-40-40A40,40,0,0,1,200,136Zm-16,0a24,24,0,1,0-24,24A24,24,0,0,0,184,136Z"/></svg>
